icon-themes/breeze_svg/cmd/lc_toggleobjectbeziermode.svg

<svg viewBox="0 0 24 24" xmlns="http://www.w3.org/2000/svg"><path d="m17 4-7 7 .5.5-1.5 1.5.5.5-1.5 1.5h-.2402344a9 9 0 0 0 .2402344-2 9 9 0 0 0 -2.3164062-6h6.3164062v-1h-8v.7636719a8 8 0 0 1 3 6.2363281 8 8 0 0 1 -.2675781 2h-2.7324219v5h5v-2h6.050781a2.5 2.5 0 0 0 2.449219 2 2.5 2.5 0 0 0 2.5-2.5 2.5 2.5 0 0 0 -2-2.445312v-2.054688h-1v2.050781a2.5 2.5 0 0 0 -1.945312 1.949219h-6.054688v-1l1.5-1.5.5.5 1.5-1.5.5.5 7-7zm-12 12h3v1 1 1h-3zm12.5 0a1.5 1.5 0 0 1 1.5 1.5 1.5 1.5 0 0 1 -1.5 1.5 1.5 1.5 0 0 1 -1.5-1.5 1.5 1.5 0 0 1 1.5-1.5z" fill="#4d4d4d"/></svg>

<svg xmlns="http://www.w3.org/2000/svg" viewBox="0 0 24 24">
 <path 
     style="fill:#4d4d4d" 
     d="M 17 4 L 10 11 L 10.5 11.5 L 9 13 L 9.5 13.5 L 8 15 L 7.7597656 15 A 9 9 0 0 0 8 13 A 9 9 0 0 0 5.6835938 7 L 12 7 L 12 6 L 4 6 L 4 6.7636719 A 8 8 0 0 1 7 13 A 8 8 0 0 1 6.7324219 15 L 4 15 L 4 20 L 9 20 L 9 18 L 15.050781 18 A 2.5 2.5 0 0 0 17.5 20 A 2.5 2.5 0 0 0 20 17.5 A 2.5 2.5 0 0 0 18 15.054688 L 18 13 L 17 13 L 17 15.050781 A 2.5 2.5 0 0 0 15.054688 17 L 9 17 L 9 16 L 10.5 14.5 L 11 15 L 12.5 13.5 L 13 14 L 20 7 L 17 4 z M 5 16 L 8 16 L 8 17 L 8 18 L 8 19 L 5 19 L 5 16 z M 17.5 16 A 1.5 1.5 0 0 1 19 17.5 A 1.5 1.5 0 0 1 17.5 19 A 1.5 1.5 0 0 1 16 17.5 A 1.5 1.5 0 0 1 17.5 16 z "
     />
 </svg>
